X: 1
T: The Glen Of Aherlow
R: reel
M: 4/4
L: 1/8
K: Edor
|: B2AF B2AF | EDEF EDB,D | B2AF B2AF | DFBA FE~E2 |
B2AF BFAF | EDEF EDB,A, | B,E~E2 DEFA | dBAF FE~E :|
|: eB~B2 egfe | d2fd Adfd | eB~B2 egfe | dBAF FE~E2 |
eB~B2 egfe | d2fd Adfd | B~B2d efge | dBAF FE~E2 :|


Tune 496	Setting 13408

